icons/calendar-arrow-up-outline.svg

<svg xmlns="http://www.w3.org/2000/svg" width="24" height="24" viewBox="0 0 24 24">
  <path d="M16,1 C16.5128358,1 16.9355072,1.38604019 16.9932723,1.88337887 L17,2 L17,3 L18,3 C20.1421954,3 21.8910789,4.68396847 21.9951047,6.80035966 L22,7 L22,19 C22,21.1421954 20.3160315,22.8910789 18.1996403,22.9951047 L18,23 L6,23 C3.85780461,23 2.10892112,21.3160315 2.00489531,19.1996403 L2,19 L2,7 C2,4.85780461 3.68396847,3.10892112 5.80035966,3.00489531 L6,3 L7,3 L7,2 C7,1.44771525 7.44771525,1 8,1 C8.51283584,1 8.93550716,1.38604019 8.99327227,1.88337887 L9,2 L9,3 L15,3 L15,2 C15,1.44771525 15.4477153,1 16,1 Z M20,11 L4,11 L4,19 C4,20.0543618 4.81587779,20.9181651 5.85073766,20.9945143 L6,21 L18,21 C19.0543618,21 19.9181651,20.1841222 19.9945143,19.1492623 L20,19 L20,11 Z M12,12 L12.019,12.001 L12.029,12.001 L12.081,12.003 L12.1489612,12.0110193 L12.1489612,12.0110193 C12.165949,12.0136281 12.1833753,12.0167022 12.2007258,12.0202401 C12.2227461,12.0246398 12.2444365,12.0298336 12.2658396,12.035721 C12.2814633,12.0400977 12.2968513,12.0447287 12.3121425,12.0497381 C12.3317977,12.0561225 12.3515792,12.0633157 12.3710585,12.071104 L12.4232215,12.0936734 L12.4232215,12.0936734 C12.4438914,12.1033766 12.4642939,12.1137939 12.484277,12.1248758 C12.4963944,12.1314988 12.5086131,12.1386069 12.5207088,12.1459955 C12.546275,12.1617187 12.5711307,12.1784901 12.5951593,12.1963135 C12.6012086,12.2007179 12.6070733,12.2051745 12.6128994,12.2097046 C12.6196628,12.2150711 12.6225624,12.2173721 12.625449,12.2196888 L12.7071068,12.2928932 L15.7071068,15.2928932 C16.0976311,15.6834175 16.0976311,16.3165825 15.7071068,16.7071068 C15.3466228,17.0675907 14.7793918,17.0953203 14.3871006,16.7902954 L14.2928932,16.7071068 L13,15.415 L13,19 C13,19.5522847 12.5522847,20 12,20 C11.4871642,20 11.0644928,19.6139598 11.0067277,19.1166211 L11,19 L11,15.415 L9.70710678,16.7071068 C9.31658249,17.0976311 8.68341751,17.0976311 8.29289322,16.7071068 C7.93240926,16.3466228 7.90467972,15.7793918 8.20970461,15.3871006 L8.29289322,15.2928932 L11.2928932,12.2928932 L11.37,12.224 L11.38,12.215 L11.4046934,12.1963346 L11.4046934,12.1963346 C11.4288693,12.1784901 11.453725,12.1617187 11.4793398,12.1460674 L11.5159379,12.1246712 L11.5159379,12.1246712 C11.5357061,12.1137939 11.5561086,12.1033766 11.5769009,12.0936538 L11.628664,12.0712255 L11.628664,12.0712255 C11.6484208,12.0633157 11.6682023,12.0561225 11.6882636,12.0495467 C11.7031487,12.0447287 11.7185367,12.0400977 11.734007,12.0358451 C11.7555635,12.0298336 11.7772539,12.0246398 11.7992059,12.0201652 C11.8166247,12.0167022 11.834051,12.0136281 11.8515331,12.0110178 L11.909968,12.003998 L11.909968,12.003998 C11.9208131,12.00307 11.9308872,12.0023256 11.9409686,12.0017331 L11.980824,12.0001802 L12,12 L12,12 Z M7,5 L6,5 C4.9456382,5 4.08183488,5.81587779 4.00548574,6.85073766 L4,7 L4,9 L20,9 L20,7 C20,5.9456382 19.1841222,5.08183488 18.1492623,5.00548574 L18,5 L17,5 L17,6 C17,6.55228475 16.5522847,7 16,7 C15.4871642,7 15.0644928,6.61395981 15.0067277,6.11662113 L15,6 L15,5 L9,5 L9,6 C9,6.55228475 8.55228475,7 8,7 C7.48716416,7 7.06449284,6.61395981 7.00672773,6.11662113 L7,6 L7,5 Z"/>
</svg>

<svg xmlns="http://www.w3.org/2000/svg" viewBox="0 0 24 24">
  <path d="M16 1a1 1 0 0 1 1 .88V3h1a4 4 0 0 1 4 3.8V19a4 4 0 0 1-3.8 4H6a4 4 0 0 1-4-3.8V7a4 4 0 0 1 3.8-4H7V2a1 1 0 0 1 2-.12V3h6V2a1 1 0 0 1 1-1zm4 10H4v8a2 2 0 0 0 1.85 2H18a2 2 0 0 0 2-1.85V11zm-8 1h.08l.07.01a1.08 1.08 0 0 1 .22.06l.05.02a1.02 1.02 0 0 1 .2.13l.09.07 3 3a1 1 0 0 1-1.32 1.5l-.1-.08L13 15.4V19a1 1 0 0 1-2 .12V15.4l-1.3 1.3a1 1 0 0 1-1.49-1.32l.08-.1 3-3 .08-.07h.01l.02-.02.08-.05.04-.03.06-.03.05-.02a.99.99 0 0 1 .22-.06h.09l.04-.01H12zM7 5H6a2 2 0 0 0-2 1.85V9h16V7a2 2 0 0 0-1.85-2H17v1a1 1 0 0 1-2 .12V5H9v1a1 1 0 0 1-2 .12V5z"/>
</svg>
